X:26
T:Klamm s1.2 #2  Em
M:3/2
G:Lark14
Q: 1/4=170
K:Em
L:1/8
"Em"EFGE F2B2 "D"AGFG|"Em"EFGE F2B2 "D"AGFG|FEDE F2B2 AGF2:|
|:"G"BdBA G2FE "Am"A4|"D"FGFE D2EF "G"Gz z6|"G"BdBA G2FE"Am"A4|"D"BddA B2 "Em"GFE4:|

